components/icon/svg/24/ticket_timetable.svg

<?xml version="1.0" encoding="UTF-8"?>
<svg width="24px" height="24px" viewBox="0 0 24 24" version="1.1" xmlns="http://www.w3.org/2000/svg" xmlns:xlink="http://www.w3.org/1999/xlink">
    <!-- Generator: Sketch 64 (93537) - https://sketch.com -->
    <title>ic-db_ticket_timetable_24</title>
    <desc>Created with Sketch.</desc>
    <g id="Symbols:Icon" stroke="none" stroke-width="1" fill="none" fill-rule="evenodd">
        <g id="24dp-Icon/Ticket/Timetable" fill="#282D37">
            <path d="M3.5,19.5 L3.5,4 C3.5,2.90625 4.40625,2 5.5,2 L7.46875,2 C8.03125,2 8.46875,2.4375 8.46875,3 C8.46875,3.53125 8.03125,4 7.46875,4 L5.5,4 L5.5,19.5 C5.5,19.78125 5.6875,20 5.96875,20 L14.96875,20 C15.25,20 15.5,19.78125 15.5,19.5 L15.5,14.65625 C15.5,14.125 15.9375,13.65625 16.46875,13.65625 C17.0625,13.65625 17.5,14.125 17.5,14.65625 L17.5,19.5 C17.5,20.875 16.375,22 14.96875,22 L5.96875,22 C4.625,22 3.5,20.875 3.5,19.5 Z M7.5,17 C7.5,16.4375 7.9375,16 8.46875,16 L12.5,16 C13.03125,16 13.46875,16.4375 13.46875,17 C13.46875,17.53125 13.03125,18 12.5,18 L8.46875,18 C7.9375,18 7.5,17.53125 7.5,17 Z M7.5,13 C7.5,12.4375 7.9375,12 8.5,12 L10.5,12 C11.03125,12 11.46875,12.4375 11.46875,13 C11.46875,13.5625 11.03125,14 10.5,14 L8.5,14 C7.9375,14 7.5,13.5625 7.5,13 Z M15.46875,2 C18.28125,2 20.5,4.25 20.5,7 C20.5,9.78125 18.28125,12 15.5,12 C12.75,12 10.53125,9.78125 10.53125,7 C10.53125,4.25 12.71875,2 15.46875,2 Z M16.5,4 L16.5,6.9375 C16.5,7.3125 16.3125,7.65625 16,7.8125 C15.84375,7.90625 15.6875,7.96875 15.5,7.96875 C15.34375,7.96875 15.15625,7.90625 15,7.78125 L12.59375,6.25 C12.53125,6.46875 12.53125,6.6875 12.53125,6.90625 C12.53125,8.625 13.875,10 15.5,10 C17.1875,10 18.5,8.625 18.5,6.90625 C18.5,5.5625 17.6875,4.4375 16.5,4 Z" id="🎨-Color"></path>
        </g>
    </g>
</svg>

<svg width="24" height="24" xmlns="http://www.w3.org/2000/svg"><path d="M3.5 19.5V4c0-1.094.906-2 2-2h1.969c.562 0 1 .438 1 1 0 .531-.438 1-1 1H5.5v15.5c0 .281.188.5.469.5h9c.281 0 .531-.219.531-.5v-4.844c0-.531.438-1 .969-1 .593 0 1.031.469 1.031 1V19.5c0 1.375-1.125 2.5-2.531 2.5h-9C4.625 22 3.5 20.875 3.5 19.5zm4-2.5c0-.563.438-1 .969-1H12.5a.98.98 0 01.969 1c0 .531-.438 1-.969 1H8.469c-.531 0-.969-.469-.969-1zm0-4c0-.563.438-1 1-1h2a.98.98 0 01.969 1 .98.98 0 01-.969 1h-2c-.563 0-1-.438-1-1zm7.969-11A5.001 5.001 0 0120.5 7c0 2.781-2.219 5-5 5a4.968 4.968 0 01-4.969-5c0-2.75 2.188-5 4.938-5zM16.5 4v2.938c0 .375-.188.718-.5.875a.944.944 0 01-.5.156.831.831 0 01-.5-.188L12.594 6.25c-.063.219-.063.438-.063.656C12.531 8.625 13.875 10 15.5 10c1.688 0 3-1.375 3-3.094 0-1.343-.813-2.468-2-2.906z" fill="#282D37" fill-rule="evenodd"/></svg>
